X: 24344
T: Louis De Carlo's
R: reel
M: 4/4
K: Gmajor
|:DEGA B2AG|EGAB edBG|DEGA BGAB|edBG AGEG|
DEGA B2AG|EGAB edBG|E2cB cBAG|~D2GB AGG2:|
|:E2cB cBAG|D2BA AG|E2cB cBcd|edBG AGEG|
E2cB cBAG|D2BA AG|E2cB cBAG|~D2GB AGG2:|

